X:960
T:The Dancingmaster
N:"Collected by F.O'Neill"
B:O'Neill's 960
Z:Transcribed by Dan G. Petersen, dangp@post6.tele.dk
M:6/8
L:1/8
K:Am
(A/B/)|cAA eAA|cBA eAA|BGG dGG|gfe dcB|
cAA eAA|cBA e2^f|g=fe dcB|cAA A2:|
d|e^f^g a2b|a2b age|e^f^g a2b|age g2d|
e^f^g a2b|a2b age|gfe dcB|cAA A2:|


